X:128
T:Nola
C:Felix Arndt
N:TablEdited by Larry Tanner
L:1/8
Q:1/4=150
M:4/4
K:D
|: (3D"D"EF B3/2D/ E3/2F/ A3/2D/ | (3EFB D3/2(3E (3FAF (3EDB, | "E7"(3EF^G e3/2E/ F3/2G/ d2 | 
(3F^Gc E3/2(3F (3GBA (3GFE | "A7"(3ABc a3/2A/ B3/2c/ g2 | (3Bcf A3/2(3B (3ced (3cBA | 
"D"(3DFB (3AFD (3CDF (3B^GA | (3dfc (3dfb (3afd (3BAF | "D"(3DEF B3/2D/ E3/2F/ A2 | 
(3EFB D3/2(3E (3FAF (3EDB, | "E7"(3EF^G e3/2E/ F3/2G/ d2 | (3F^Gc E3/2(3F (3GBA (3GFE | 
"A7"(3ABc a3/2A/ B3/2c/ g2 | (3Bcf A3/2(3B (3ced (3cBA | "D"(3dBA (3FED (3BAF (3EDB, | 
"A7"A,z Az "D"dz3 | 
K:F
|1 A2 f2 _A2 e3/2e/ | "D"(3G_G=G e3/2e/ F2 d2 | (3EFG (3=BGE "D+"(3DAG (3FED | 
"G"(3_D=DE (3A,B,C "D7"D3/2F/ G3/2_A/ | "G"A2 _g2 _A2 e3/2e/ | "D"(3G_G=G e3/2e/ "Ddim"F2 d2 | 
"A7"(3EFG (3=BAG B2 c2 | "D7"_d2 =d2 a2 e2 :| 
K:G
|2 "G7"D2 D3/2^D/ E2 E3/2=F/ |] "D"F3/2G/ ^G3/2A/ e2 e2 | F3/2G/ ^G3/2A/ "D+"f2 f2 | 
"G"e3/2f/ e3/2(3B "D7"(3dc^G (3BAF | "G"D2 D3/2^D/ E2 E3/2=F/ | "D"F3/2G/ ^G3/2A/ "D+"^c2 c3/2B/ | 
"A7"A3/2^A/ B3/2^c/ g2 g3/2f/ | "D7"e3/2(3d (3cBA (3^GBA (3FE^D | "G7"D2 D3/2^D/ E2 E3/2=F/ | 
"D"F3/2G/ ^G3/2A/ e2 e2 | F3/2G/ ^G3/2A/ f2 f2 | e3/2f/ e3/2(3B (3dc^G (3BAF | 
"G7"d2 (3GBd "C"c2 (3EGc | "Cm"B2 (3E^GB "G"A2 "Gdim"f3/2e/ | "G"A2 "Gdim"F3/2E/ "G"D2 B2 | 
"D7"A4 "G"G4 | (3"G7"b^ab B3/2b/ =a3/2b/ B3/2b/ | g3/2b/ B3/2b/ f3/2b/ B3/2b/ | 
(3ega (3bge (3^def g3/2b/ | e3/2g/ B3/2(3e (3GAB E2 | (3"A7"a^ga A3/2a/ =g3/2a/ A3/2a/ | 
f3/2a/ A3/2a/ e3/2a/ A3/2a/ | (3dfb (3afd (3^cde f3/2a/ | d3/2f/ A3/2(3d (3FGA D2 | 
"G"D3^D E3=F | "D"F3G ^G3A | ^A3B c3^c | d4 D4 | 


